assets/dist/images/logo/vero-logo-blue-navigation.svg

<?xml version="1.0" encoding="UTF-8" standalone="no"?>
<svg width="104px" height="36px" viewBox="0 0 104 36" version="1.1" xmlns="http://www.w3.org/2000/svg" xmlns:xlink="http://www.w3.org/1999/xlink" xmlns:sketch="http://www.bohemiancoding.com/sketch/ns">
    <!-- Generator: Sketch 3.4.2 (15855) - http://www.bohemiancoding.com/sketch -->
    <title>logo-blue</title>
    <desc>Created with Sketch.</desc>
    <defs>
        <path d="M35.253386,0.00233558155 C35.2034413,0.000747386095 35.1532175,0 35.1029937,0 L35.1029937,0 L4.85375807,0 C4.82455386,0 4.79544266,0.000186846524 4.76633145,0.000747386095 L4.76633145,0.000747386095 C4.73768529,0.000186846524 4.70913213,0 4.68039295,0 L4.68039295,0 C2.07610301,0 0,2.08539405 0,4.70124538 L0,4.70124538 C0,5.28803689 0.111794454,5.85100547 0.3160379,6.36950457 L0.3160379,6.36950457 C0.411556124,6.66163911 0.537022612,6.94844853 0.693367436,7.22610246 L0.693367436,7.22610246 L15.8179852,33.5187716 C16.0348776,33.8954542 16.2950183,34.2303766 16.5880835,34.5212032 L16.5880835,34.5212032 C17.4398419,35.4285299 18.658327,36 20.0216241,36 L20.0216241,36 C21.1604953,36 22.2088705,35.5732425 23.0157996,34.8719141 L23.0157996,34.8719141 C23.4730221,34.5111135 23.8718363,34.0575435 24.1820148,33.5187716 L24.1820148,33.5187716 L39.3066326,7.22610246 C39.4600012,6.95386707 39.5835145,6.6728499 39.6783817,6.38669445 L39.6783817,6.38669445 C39.8857874,5.86333734 40,5.29457652 40,4.70124538 L40,4.70124538 C40,2.08539405 37.923897,0 35.4062896,0 L35.4062896,0 C35.3550427,0 35.3040749,0.000747386095 35.253386,0.00233558155 L35.253386,0.00233558155 Z M21.4951346,24.7254939 L33.4561181,3.87416925 C33.4990874,3.81521917 33.5271755,3.77028258 33.5428007,3.74356353 L33.5428007,3.74356353 C33.8966924,3.06138687 34.5840144,2.61174071 35.4062896,2.61174071 L35.4062896,2.61174071 C36.4886125,2.61174071 37.3998024,3.52822291 37.3998024,4.70124538 L37.3998024,4.70124538 C37.3998024,5.1021246 37.2680114,5.49590365 37.0530721,5.8330682 L37.0530721,5.8330682 C37.0291693,5.85119231 37.0135441,5.87996668 37.0098239,5.92013868 L37.0098239,5.92013868 L23.8352845,28.8173394 L21.4951346,24.7254939 Z M4.85375807,2.61174071 L31.2025577,2.61174071 L28.8624077,6.703773 L4.85375807,6.703773 C4.81274196,6.703773 4.77265593,6.70246508 4.72373423,6.703773 L4.72373423,6.703773 C4.69378597,6.70246508 4.65444399,6.703773 4.59380341,6.703773 L4.59380341,6.703773 C3.46851131,6.703773 2.55694937,5.7876645 2.55694937,4.70124538 L2.55694937,4.70124538 C2.55694937,3.52784921 3.46851131,2.61174071 4.59380341,2.61174071 L4.59380341,2.61174071 C4.65444399,2.61174071 4.69369296,2.61295521 4.72373423,2.61174071 L4.72373423,2.61174071 C4.74001046,2.61220783 4.75535662,2.61230125 4.77005174,2.61230125 L4.77005174,2.61230125 C4.79944196,2.61230125 4.82632099,2.61174071 4.85375807,2.61174071 L4.85375807,2.61174071 Z M12.6354706,9.31551371 L27.3646224,9.31551371 L19.9999535,22.1182375 L12.6354706,9.31551371 Z M18.1148869,32.2998783 C18.1177702,32.269142 18.1032611,32.2450388 18.0714527,32.2128078 L18.0714527,32.2128078 L4.94034761,9.31551371 L9.62083358,9.31551371 L21.6251584,30.1668384 C21.6410626,30.22392 21.6671046,30.2740883 21.711748,30.3409793 L21.711748,30.3409793 C21.8957159,30.6476879 22.0151369,31.0339931 22.0151369,31.4727087 L22.0151369,31.4727087 C22.0151369,32.5592213 21.104412,33.4752363 20.0216241,33.4752363 L20.0216241,33.4752363 C19.1667965,33.4752363 18.4557577,32.9871932 18.1148869,32.2998783 L18.1148869,32.2998783 Z" id="path-1"></path>
    </defs>
    <g id="Home" stroke="none" stroke-width="1" fill="none" fill-rule="evenodd" sketch:type="MSPage">
        <g id="logo-blue" sketch:type="MSArtboardGroup">
            <path d="M56.84,23.11 C56.6599991,23.510002 56.465001,23.8399987 56.255,24.1 C56.044999,24.3600013 55.8250012,24.5649993 55.595,24.715 C55.3649988,24.8650008 55.1300012,24.9649998 54.89,25.015 C54.6499988,25.0650003 54.430001,25.09 54.23,25.09 C54.0099989,25.09 53.7850011,25.0650003 53.555,25.015 C53.3249989,24.9649998 53.0950012,24.8650008 52.865,24.715 C52.6349989,24.5649993 52.4150011,24.3600013 52.205,24.1 C51.9949989,23.8399987 51.8000009,23.510002 51.62,23.11 L47.24,12.88 C47.0799992,12.4999981 47,12.1600015 47,11.86 C47,11.3599975 47.1749983,10.9500016 47.525,10.63 C47.8750017,10.3099984 48.3099974,10.15 48.83,10.15 C49.1100014,10.15 49.4149983,10.2349992 49.745,10.405 C50.0750016,10.5750009 50.3599988,10.9799968 50.6,11.62 L54.2,20.92 L54.26,20.92 L57.95,11.59 C58.1900012,10.9699969 58.4699984,10.5750009 58.79,10.405 C59.1100016,10.2349992 59.4099986,10.15 59.69,10.15 C60.2100026,10.15 60.6349984,10.3099984 60.965,10.63 C61.2950016,10.9500016 61.46,11.3399977 61.46,11.8 C61.46,11.9000005 61.4450002,12.0349992 61.415,12.205 C61.3849999,12.3750009 61.3200005,12.5799988 61.22,12.82 L56.84,23.11 Z M66.1,18.76 C66.1400002,19.2800026 66.2749989,19.7549979 66.505,20.185 C66.7350012,20.6150022 67.0399981,20.9849984 67.42,21.295 C67.8000019,21.6050016 68.2299976,21.8499991 68.71,22.03 C69.1900024,22.2100009 69.6899974,22.3 70.21,22.3 C70.9700038,22.3 71.5949976,22.1900011 72.085,21.97 C72.5750025,21.7499989 73.0499977,21.4500019 73.51,21.07 C73.7700013,20.8499989 73.9899991,20.7100003 74.17,20.65 C74.3500009,20.5899997 74.539999,20.56 74.74,20.56 C75.140002,20.56 75.4799986,20.6899987 75.76,20.95 C76.0400014,21.2100013 76.18,21.5599978 76.18,22 C76.18,22.1600008 76.1400004,22.3599988 76.06,22.6 C75.9799996,22.8400012 75.8200012,23.0699989 75.58,23.29 C74.8799965,23.9700034 74.1050043,24.4649985 73.255,24.775 C72.4049958,25.0850016 71.4000058,25.24 70.24,25.24 C69.1199944,25.24 68.0900047,25.0650018 67.15,24.715 C66.2099953,24.3649982 65.3950035,23.8700032 64.705,23.23 C64.0149966,22.5899968 63.475002,21.8050047 63.085,20.875 C62.6949981,19.9449953 62.5,18.8900059 62.5,17.71 C62.5,16.5499942 62.6949981,15.4950047 63.085,14.545 C63.475002,13.5949953 64.0099966,12.7850034 64.69,12.115 C65.3700034,11.4449967 66.1749954,10.9250019 67.105,10.555 C68.0350047,10.1849981 69.0399946,10 70.12,10 C70.9800043,10 71.7999961,10.1249987 72.58,10.375 C73.3600039,10.6250013 74.049997,11.0049974 74.65,11.515 C75.250003,12.0250026 75.754998,12.6699961 76.165,13.45 C76.5750021,14.2300039 76.8499993,15.1499947 76.99,16.21 C77.0100001,16.3700008 77.025,16.5049995 77.035,16.615 C77.0450001,16.7250005 77.05,16.8399994 77.05,16.96 C77.05,17.6000032 76.8850017,18.0599986 76.555,18.34 C76.2249984,18.6200014 75.760003,18.76 75.16,18.76 L66.1,18.76 Z M73.48,16.18 C73.48,15.7199977 73.4150007,15.2800021 73.285,14.86 C73.1549994,14.4399979 72.9500014,14.0700016 72.67,13.75 C72.3899986,13.4299984 72.0350022,13.175001 71.605,12.985 C71.1749979,12.7949991 70.6700029,12.7 70.09,12.7 C69.0099946,12.7 68.0950038,13.0249968 67.345,13.675 C66.5949963,14.3250033 66.1800004,15.1599949 66.1,16.18 L73.48,16.18 Z M82.46,23.08 C82.46,23.5000021 82.3950007,23.8449987 82.265,24.115 C82.1349994,24.3850014 81.975001,24.5899993 81.785,24.73 C81.5949991,24.8700007 81.3950011,24.9649997 81.185,25.015 C80.974999,25.0650003 80.8000007,25.09 80.66,25.09 C80.4999992,25.09 80.320001,25.0650003 80.12,25.015 C79.919999,24.9649997 79.725001,24.8700007 79.535,24.73 C79.3449991,24.5899993 79.1850007,24.3850014 79.055,24.115 C78.9249994,23.8449987 78.86,23.5000021 78.86,23.08 L78.86,12.07 C78.86,11.669998 78.9249994,11.3450013 79.055,11.095 C79.1850007,10.8449987 79.3399991,10.6500007 79.52,10.51 C79.7000009,10.3699993 79.8849991,10.2750002 80.075,10.225 C80.265001,10.1749997 80.4299993,10.15 80.57,10.15 C80.7100007,10.15 80.879999,10.1749997 81.08,10.225 C81.280001,10.2750002 81.4699991,10.3699993 81.65,10.51 C81.8300009,10.6500007 81.9849994,10.8449987 82.115,11.095 C82.2450007,11.3450013 82.31,11.669998 82.31,12.07 L82.31,12.82 L82.37,12.82 C82.6500014,12.0399961 83.1249967,11.3750028 83.795,10.825 C84.4650034,10.2749973 85.2399956,10 86.12,10 C86.6600027,10 87.1049983,10.1349986 87.455,10.405 C87.8050018,10.6750014 87.98,11.0699974 87.98,11.59 C87.98,12.0500023 87.8300015,12.4549983 87.53,12.805 C87.2299985,13.1550018 86.7300035,13.33 86.03,13.33 C84.8899943,13.33 84.0100031,13.7149961 83.39,14.485 C82.7699969,15.2550039 82.46,16.239994 82.46,17.44 L82.46,23.08 Z M103.9,17.56 C103.9,18.7000057 103.695002,19.7399953 103.285,20.68 C102.874998,21.6200047 102.320004,22.4249967 101.62,23.095 C100.919997,23.7650034 100.090005,24.2899981 99.13,24.67 C98.1699952,25.0500019 97.1500054,25.24 96.07,25.24 C94.9899946,25.24 93.9700048,25.0500019 93.01,24.67 C92.0499952,24.2899981 91.2200035,23.7650034 90.52,23.095 C89.8199965,22.4249967 89.2650021,21.6200047 88.855,20.68 C88.444998,19.7399953 88.24,18.7000057 88.24,17.56 C88.24,16.4199943 88.444998,15.3850046 88.855,14.455 C89.2650021,13.5249954 89.8199965,12.7300033 90.52,12.07 C91.2200035,11.4099967 92.0499952,10.9000018 93.01,10.54 C93.9700048,10.1799982 94.9899946,10 96.07,10 C97.1500054,10 98.1699952,10.1799982 99.13,10.54 C100.090005,10.9000018 100.919997,11.4099967 101.62,12.07 C102.320004,12.7300033 102.874998,13.5249954 103.285,14.455 C103.695002,15.3850046 103.9,16.4199943 103.9,17.56 L103.9,17.56 Z M100.24,17.56 C100.24,16.9999972 100.155001,16.4450028 99.985,15.895 C99.8149992,15.3449973 99.5600017,14.8500022 99.22,14.41 C98.8799983,13.9699978 98.4500026,13.6150014 97.93,13.345 C97.4099974,13.0749987 96.7900036,12.94 96.07,12.94 C95.3499964,12.94 94.7300026,13.0749987 94.21,13.345 C93.6899974,13.6150014 93.2600017,13.9699978 92.92,14.41 C92.5799983,14.8500022 92.3250009,15.3449973 92.155,15.895 C91.9849992,16.4450028 91.9,16.9999972 91.9,17.56 C91.9,18.1200028 91.9849992,18.6799972 92.155,19.24 C92.3250009,19.8000028 92.5799983,20.2999978 92.92,20.74 C93.2600017,21.1800022 93.6899974,21.5399986 94.21,21.82 C94.7300026,22.1000014 95.3499964,22.24 96.07,22.24 C96.7900036,22.24 97.4099974,22.1000014 97.93,21.82 C98.4500026,21.5399986 98.8799983,21.1800022 99.22,20.74 C99.5600017,20.2999978 99.8149992,19.8000028 99.985,19.24 C100.155001,18.6799972 100.24,18.1200028 100.24,17.56 L100.24,17.56 Z" id="vero" fill="#354254" sketch:type="MSShapeGroup"></path>
            <g id="Logo---Latest" sketch:type="MSLayerGroup">
                <mask id="mask-2" sketch:name="Clip 2" fill="white">
                    <use xlink:href="#path-1"></use>
                </mask>
                <use id="Clip-2" fill="#01B2D0" sketch:type="MSShapeGroup" xlink:href="#path-1"></use>
            </g>
        </g>
    </g>
</svg>

<svg width="104" height="36" viewBox="0 0 104 36" xmlns="http://www.w3.org/2000/svg" xmlns:xlink="http://www.w3.org/1999/xlink"><defs><path d="M35.253.002L35.103 0H4.68C2.076 0 0 2.085 0 4.701c0 .587.112 1.15.316 1.669.096.292.221.578.377.856L15.818 33.52c.217.376.477.711.77 1.002A4.69 4.69 0 0020.022 36a4.557 4.557 0 002.994-1.128c.457-.36.856-.814 1.166-1.353L39.307 7.226c.153-.272.277-.553.371-.84A4.566 4.566 0 0040 4.702C40 2.085 37.924 0 35.406 0c-.051 0-.102 0-.153.002zM21.495 24.725l11.961-20.85c.043-.06.071-.105.087-.131a2.072 2.072 0 011.863-1.132c1.083 0 1.994.916 1.994 2.09 0 .4-.132.794-.347 1.131a.118.118 0 00-.043.087L23.835 28.817l-2.34-4.092zM4.854 2.612h26.349l-2.34 4.092H4.852c-.04 0-.08-.002-.13 0-.03-.002-.069 0-.13 0-1.124 0-2.036-.916-2.036-2.003 0-1.173.912-2.09 2.037-2.09.06 0 .1.002.13 0l.046.001h.084zm7.781 6.704h14.73L20 22.118 12.635 9.316zm5.48 22.984c.003-.03-.012-.055-.044-.087L4.941 9.316h4.68l12.004 20.85a.59.59 0 00.087.175c.184.307.303.693.303 1.132 0 1.086-.91 2.002-1.993 2.002a2.116 2.116 0 01-1.907-1.175z" id="a"/></defs><g fill="none" fill-rule="evenodd"><path d="M56.84 23.11c-.18.4-.375.73-.585.99-.21.26-.43.465-.66.615-.23.15-.465.25-.705.3-.24.05-.46.075-.66.075-.22 0-.445-.025-.675-.075-.23-.05-.46-.15-.69-.3-.23-.15-.45-.355-.66-.615-.21-.26-.405-.59-.585-.99l-4.38-10.23c-.16-.38-.24-.72-.24-1.02 0-.5.175-.91.525-1.23.35-.32.785-.48 1.305-.48.28 0 .585.085.915.255.33.17.615.575.855 1.215l3.6 9.3h.06l3.69-9.33c.24-.62.52-1.015.84-1.185.32-.17.62-.255.9-.255.52 0 .945.16 1.275.48.33.32.495.71.495 1.17 0 .1-.015.235-.045.405-.03.17-.095.375-.195.615l-4.38 10.29zm9.26-4.35a3.566 3.566 0 001.32 2.535c.38.31.81.555 1.29.735.48.18.98.27 1.5.27.76 0 1.385-.11 1.875-.33.49-.22.965-.52 1.425-.9.26-.22.48-.36.66-.42.18-.06.37-.09.57-.09.4 0 .74.13 1.02.39s.42.61.42 1.05c0 .16-.04.36-.12.6-.08.24-.24.47-.48.69a6.534 6.534 0 01-2.325 1.485c-.85.31-1.855.465-3.015.465-1.12 0-2.15-.175-3.09-.525a7.292 7.292 0 01-2.445-1.485 6.693 6.693 0 01-1.62-2.355c-.39-.93-.585-1.985-.585-3.165 0-1.16.195-2.215.585-3.165.39-.95.925-1.76 1.605-2.43a7.18 7.18 0 012.415-1.56A8.082 8.082 0 0170.12 10c.86 0 1.68.125 2.46.375s1.47.63 2.07 1.14c.6.51 1.105 1.155 1.515 1.935.41.78.685 1.7.825 2.76.02.16.035.295.045.405.01.11.015.225.015.345 0 .64-.165 1.1-.495 1.38-.33.28-.795.42-1.395.42H66.1zm7.38-2.58c0-.46-.065-.9-.195-1.32-.13-.42-.335-.79-.615-1.11a3.002 3.002 0 00-1.065-.765c-.43-.19-.935-.285-1.515-.285-1.08 0-1.995.325-2.745.975-.75.65-1.165 1.485-1.245 2.505h7.38zm8.98 6.9c0 .42-.065.765-.195 1.035-.13.27-.29.475-.48.615s-.39.235-.6.285c-.21.05-.385.075-.525.075-.16 0-.34-.025-.54-.075-.2-.05-.395-.145-.585-.285-.19-.14-.35-.345-.48-.615s-.195-.615-.195-1.035V12.07c0-.4.065-.725.195-.975s.285-.445.465-.585c.18-.14.365-.235.555-.285.19-.05.355-.075.495-.075s.31.025.51.075c.2.05.39.145.57.285.18.14.335.335.465.585.13.25.195.575.195.975v.75h.06c.28-.78.755-1.445 1.425-1.995A3.557 3.557 0 0186.12 10c.54 0 .985.135 1.335.405s.525.665.525 1.185c0 .46-.15.865-.45 1.215-.3.35-.8.525-1.5.525-1.14 0-2.02.385-2.64 1.155-.62.77-.93 1.755-.93 2.955v5.64zm21.44-5.52c0 1.14-.205 2.18-.615 3.12a7.388 7.388 0 01-1.665 2.415c-.7.67-1.53 1.195-2.49 1.575-.96.38-1.98.57-3.06.57s-2.1-.19-3.06-.57a7.604 7.604 0 01-2.49-1.575 7.388 7.388 0 01-1.665-2.415c-.41-.94-.615-1.98-.615-3.12 0-1.14.205-2.175.615-3.105a7.26 7.26 0 011.665-2.385 7.34 7.34 0 012.49-1.53c.96-.36 1.98-.54 3.06-.54s2.1.18 3.06.54c.96.36 1.79.87 2.49 1.53a7.26 7.26 0 011.665 2.385c.41.93.615 1.965.615 3.105zm-3.66 0a5.61 5.61 0 00-.255-1.665 4.654 4.654 0 00-.765-1.485c-.34-.44-.77-.795-1.29-1.065-.52-.27-1.14-.405-1.86-.405-.72 0-1.34.135-1.86.405s-.95.625-1.29 1.065c-.34.44-.595.935-.765 1.485a5.61 5.61 0 000 3.345c.17.56.425 1.06.765 1.5.34.44.77.8 1.29 1.08s1.14.42 1.86.42c.72 0 1.34-.14 1.86-.42.52-.28.95-.64 1.29-1.08.34-.44.595-.94.765-1.5.17-.56.255-1.12.255-1.68z" fill="#354254"/><use fill="#01B2D0" xlink:href="#a"/></g></svg>
